X:1
T:An English Country Garden     (2x)
R:reel
C: England
C: arr. T. Traub 5-20-02
Z: from www.contemplator.com/tunebook/englmidi.htm
M: C
L:1/4
K:C
|: "C"c c/B/ "F"A A|"G"G/A/G/F/ "C"E E/F/|"C"G C "F"D F|"G"E>D "C"C2 :|
"C"c c/A/ "G"B G| "C"c c/A/ "G"B G| "Am"c c/B/ "D"A c| "G"B A G A/B/ |
"C"c c/B/ "F"A A|"G"G/A/G/F/ "C"E E/F/|"C"G C "F"D F|"G"E>D "C"C2 |]
